X:6736
T:The Eighteenth of March
O:england
M:6/8
C:
S:Chingford MM
N:based on Lillibulero
A:Chingford
R:Jig
%P:A.(AB)$^5$
P:A.(AB)5
L:1/8
K:G
I:speed 300
P:A
|:\
GAG  B2 B|ABA  c3|BdG c2 B|AGF G3:|\
P:B
g2 d g2 d|de=f e2 d|def gde|dcB A2 d|\
edc  Bcd|edc  Bcd|egG c2 B|AGF G3||


